images/icon/logo.svg

<svg width="72" height="36" viewBox="0 0 72 36" fill="none" xmlns="http://www.w3.org/2000/svg">
<path d="M0.660117 -0.000169039H6.44612C7.81012 -0.000169039 8.85878 0.102498 9.59212 0.307831C10.3401 0.498498 10.8681 0.813831 11.1761 1.25383C11.4841 1.67916 11.6381 2.2805 11.6381 3.05783V4.81783C11.6381 5.21383 11.4768 5.58783 11.1541 5.93983C10.8461 6.29183 10.4795 6.53383 10.0541 6.66583V6.77583C10.6115 6.8345 11.1175 7.0765 11.5721 7.50183C12.0415 7.9125 12.2761 8.3745 12.2761 8.88783V11.0878C12.2761 12.2465 11.8141 13.0678 10.8901 13.5518C9.96612 14.0358 8.53612 14.2778 6.60012 14.2778H0.660117V-0.000169039ZM6.44612 5.80783C6.98878 5.80783 7.39212 5.76383 7.65612 5.67583C7.92012 5.58783 8.09612 5.4485 8.18412 5.25783C8.28678 5.0525 8.33812 4.75916 8.33812 4.37783V3.67383C8.33812 3.3365 8.29412 3.08717 8.20612 2.92583C8.11812 2.74983 7.93478 2.62517 7.65612 2.55183C7.39212 2.4785 6.96678 2.44183 6.38012 2.44183H4.09212V5.80783H6.44612ZM6.53412 11.8358C7.37012 11.8358 7.96412 11.7405 8.31612 11.5498C8.66812 11.3592 8.84412 11.0512 8.84412 10.6258V9.48183C8.84412 8.95383 8.70478 8.57983 8.42612 8.35983C8.16212 8.13983 7.68545 8.02983 6.99612 8.02983H4.09212V11.8358H6.53412ZM19.839 14.4978C16.0696 14.4978 14.185 13.3465 14.185 11.0438V7.21583C14.185 5.88116 14.6103 4.91316 15.461 4.31183C16.3263 3.7105 17.6536 3.40983 19.443 3.40983C21.1296 3.40983 22.3616 3.70316 23.139 4.28983C23.931 4.86183 24.327 5.83716 24.327 7.21583V9.81183H17.419V10.7798C17.419 11.3958 17.639 11.8358 18.079 12.0998C18.519 12.3638 19.311 12.4958 20.455 12.4958C21.511 12.4958 22.699 12.3418 24.019 12.0338V14.0798C22.7136 14.3585 21.3203 14.4978 19.839 14.4978ZM21.269 7.98583V6.44583C21.269 6.09383 21.1223 5.82983 20.829 5.65383C20.5503 5.47783 20.0736 5.38983 19.399 5.38983C18.6216 5.38983 18.101 5.47783 17.837 5.65383C17.5583 5.8445 17.419 6.1085 17.419 6.44583V7.98583H21.269ZM29.796 14.4978C28.7987 14.4978 28.0507 14.4098 27.552 14.2338C27.068 14.0432 26.7234 13.7132 26.518 13.2438C26.3274 12.7598 26.232 12.0412 26.232 11.0878C26.232 10.2372 26.3347 9.56983 26.54 9.08583C26.76 8.60183 27.1047 8.25716 27.574 8.05183C28.058 7.83183 28.718 7.72183 29.554 7.72183H33.162V6.99583C33.162 6.54116 33.096 6.20383 32.964 5.98383C32.8467 5.76383 32.6194 5.60983 32.282 5.52183C31.9594 5.43383 31.468 5.38983 30.808 5.38983C29.8987 5.38983 28.652 5.47783 27.068 5.65383V3.62983C28.2267 3.48316 29.5834 3.40983 31.138 3.40983C32.502 3.40983 33.5507 3.5125 34.284 3.71783C35.032 3.92316 35.5674 4.27516 35.89 4.77383C36.2127 5.2725 36.374 5.9985 36.374 6.95183V14.2778H33.228V13.3098C32.9787 13.7352 32.6414 14.0358 32.216 14.2118C31.7907 14.4025 30.984 14.4978 29.796 14.4978ZM31.05 12.4958C31.6954 12.4958 32.1574 12.4738 32.436 12.4298C32.6414 12.4005 32.7807 12.3565 32.854 12.2978C32.942 12.2392 33.0154 12.1438 33.074 12.0118C33.1327 11.9092 33.162 11.7552 33.162 11.5498V9.48183H30.962C30.4634 9.48183 30.1114 9.5185 29.906 9.59183C29.7007 9.6505 29.5614 9.7825 29.488 9.98783C29.4147 10.1785 29.378 10.5232 29.378 11.0218C29.378 11.5058 29.4147 11.8432 29.488 12.0338C29.5614 12.2245 29.7007 12.3492 29.906 12.4078C30.126 12.4665 30.5074 12.4958 31.05 12.4958ZM42.896 14.4978C41.532 14.4978 40.5713 14.2558 40.014 13.7718C39.4713 13.2732 39.2 12.4958 39.2 11.4398V3.62983H42.412V10.9998C42.412 11.4105 42.4487 11.7185 42.522 11.9238C42.61 12.1292 42.7713 12.2758 43.006 12.3638C43.2553 12.4518 43.6293 12.4958 44.128 12.4958C44.7587 12.4958 45.2207 12.4592 45.514 12.3858C45.8073 12.2978 46.0053 12.1512 46.108 11.9458C46.2107 11.7405 46.262 11.4252 46.262 10.9998V3.62983H49.474V14.2778H46.306V12.9798C46.0713 13.9918 44.9347 14.4978 42.896 14.4978ZM57.608 14.4978C57.0653 14.4978 56.6106 14.4758 56.244 14.4318C55.8773 14.3878 55.5106 14.2998 55.144 14.1678C54.7333 14.0358 54.396 13.8525 54.132 13.6178C53.8826 13.3832 53.6773 13.0605 53.516 12.6498C53.34 12.2245 53.252 11.7332 53.252 11.1758V5.60983H51.096V3.62983H53.252V0.549832H56.464V3.62983H59.39V5.60983H56.464V10.6258C56.464 11.1392 56.508 11.5278 56.596 11.7918C56.684 12.0412 56.8526 12.2245 57.102 12.3418C57.3513 12.4445 57.7326 12.4958 58.246 12.4958C58.4513 12.4958 58.8326 12.4592 59.39 12.3858V14.3878C58.7006 14.4612 58.1066 14.4978 57.608 14.4978ZM64.257 14.1898L60.011 3.62983H63.509L65.907 11.1538L68.085 3.62983H71.407L65.577 18.8538H62.321L64.257 14.1898ZM0.00011725 33.1878L7.43612 23.4418H0.220117V20.9998H11.6601V23.0678L4.22412 32.8138H11.7921V35.2778H0.00011725V33.1878ZM19.1028 35.4978C18.4428 35.4978 17.9002 35.4758 17.4748 35.4318C17.0495 35.3878 16.5948 35.2998 16.1108 35.1678C15.5828 35.0212 15.1575 34.8158 14.8348 34.5518C14.5122 34.2732 14.2408 33.8845 14.0208 33.3858C13.8008 32.9018 13.6908 32.3152 13.6908 31.6258V28.4798C13.6908 27.7758 13.8008 27.1598 14.0208 26.6318C14.2408 26.1038 14.5268 25.6932 14.8788 25.3998C15.1868 25.1505 15.5902 24.9452 16.0888 24.7838C16.6022 24.6078 17.1008 24.4978 17.5848 24.4538C18.1422 24.4245 18.6482 24.4098 19.1028 24.4098C19.7775 24.4098 20.3128 24.4318 20.7088 24.4758C21.1195 24.5052 21.5668 24.5932 22.0508 24.7398C22.5788 24.9012 23.0042 25.1212 23.3268 25.3998C23.6642 25.6785 23.9502 26.0745 24.1848 26.5878C24.4048 27.1158 24.5148 27.7465 24.5148 28.4798V31.6258C24.5148 32.2858 24.4048 32.8652 24.1848 33.3638C23.9795 33.8625 23.7082 34.2512 23.3708 34.5298C23.0775 34.7792 22.6742 34.9845 22.1608 35.1458C21.6622 35.2925 21.1708 35.3878 20.6868 35.4318C20.2468 35.4758 19.7188 35.4978 19.1028 35.4978ZM19.1028 33.4958C19.7042 33.4958 20.1588 33.4518 20.4668 33.3638C20.7748 33.2612 20.9875 33.1072 21.1048 32.9018C21.2368 32.6965 21.3028 32.3958 21.3028 31.9998V27.9738C21.3028 27.3872 21.1488 26.9765 20.8408 26.7418C20.5328 26.5072 19.9535 26.3898 19.1028 26.3898C18.2522 26.3898 17.6728 26.5072 17.3648 26.7418C17.0568 26.9765 16.9028 27.3872 16.9028 27.9738V31.9998C16.9028 32.3958 16.9615 32.6965 17.0788 32.9018C17.2108 33.1072 17.4308 33.2612 17.7388 33.3638C18.0468 33.4518 18.5015 33.4958 19.1028 33.4958ZM27.0184 24.6298H30.1864V25.9278C30.4357 24.9158 31.5724 24.4098 33.5964 24.4098C34.9604 24.4098 35.9137 24.6592 36.4564 25.1578C37.0137 25.6418 37.2924 26.4118 37.2924 27.4678V35.2778H34.0804V27.8858C34.0804 27.4752 34.0364 27.1672 33.9484 26.9618C33.875 26.7565 33.7137 26.6098 33.4644 26.5218C33.2297 26.4338 32.863 26.3898 32.3644 26.3898C31.7337 26.3898 31.2717 26.4338 30.9784 26.5218C30.685 26.5952 30.487 26.7345 30.3844 26.9398C30.2817 27.1452 30.2304 27.4605 30.2304 27.8858V35.2778H27.0184V24.6298ZM45.4483 35.4978C41.679 35.4978 39.7943 34.3465 39.7943 32.0438V28.2158C39.7943 26.8812 40.2197 25.9132 41.0703 25.3118C41.9357 24.7105 43.263 24.4098 45.0523 24.4098C46.739 24.4098 47.971 24.7032 48.7483 25.2898C49.5403 25.8618 49.9363 26.8372 49.9363 28.2158V30.8118H43.0283V31.7798C43.0283 32.3958 43.2483 32.8358 43.6883 33.0998C44.1283 33.3638 44.9203 33.4958 46.0643 33.4958C47.1203 33.4958 48.3083 33.3418 49.6283 33.0338V35.0798C48.323 35.3585 46.9297 35.4978 45.4483 35.4978ZM46.8783 28.9858V27.4458C46.8783 27.0938 46.7317 26.8298 46.4383 26.6538C46.1597 26.4778 45.683 26.3898 45.0083 26.3898C44.231 26.3898 43.7103 26.4778 43.4463 26.6538C43.1677 26.8445 43.0283 27.1085 43.0283 27.4458V28.9858H46.8783Z" fill="#2B7FFF"/>
</svg>

<svg xmlns="http://www.w3.org/2000/svg" width="72" height="36" fill="none"><path fill="#2B7FFF" d="M.66 0h5.786q2.046 0 3.146.308 1.122.286 1.584.946.462.638.462 1.804v1.76q0 .594-.484 1.122a2.4 2.4 0 0 1-1.1.726v.11q.836.088 1.518.726.705.615.704 1.386v2.2q0 1.738-1.386 2.464t-4.29.726H.66zm5.786 5.808q.814 0 1.21-.132t.528-.418q.154-.308.154-.88v-.704q0-.506-.132-.748-.132-.264-.55-.374-.396-.11-1.276-.11H4.092v3.366zm.088 6.028q1.254 0 1.782-.286t.528-.924V9.482q0-.792-.418-1.122-.396-.33-1.43-.33H4.092v3.806zm13.305 2.662q-5.655 0-5.654-3.454V7.216q0-2.002 1.276-2.904 1.298-.902 3.982-.902 2.53 0 3.696.88 1.188.858 1.188 2.926v2.596h-6.908v.968q0 .924.66 1.32t2.376.396q1.584 0 3.564-.462v2.046a20 20 0 0 1-4.18.418m1.43-6.512v-1.54q0-.528-.44-.792-.418-.264-1.43-.264-1.166 0-1.562.264a.91.91 0 0 0-.418.792v1.54zm8.527 6.512q-1.496 0-2.244-.264a1.8 1.8 0 0 1-1.034-.99q-.286-.726-.286-2.156 0-1.276.308-2.002.33-.726 1.034-1.034.726-.33 1.98-.33h3.608v-.726q0-.682-.198-1.012-.176-.33-.682-.462-.484-.132-1.474-.132-1.364 0-3.74.264V3.63q1.738-.22 4.07-.22 2.046 0 3.146.308 1.122.308 1.606 1.056t.484 2.178v7.326h-3.146v-.968q-.375.638-1.012.902-.638.285-2.42.286m1.254-2.002q.967 0 1.386-.066.308-.044.418-.132a.65.65 0 0 0 .22-.286q.088-.155.088-.462V9.482h-2.2q-.748 0-1.056.11a.6.6 0 0 0-.418.396q-.11.285-.11 1.034 0 .726.11 1.012.11.285.418.374.33.088 1.144.088m11.846 2.002q-2.046 0-2.882-.726-.814-.748-.814-2.332V3.63h3.212V11q0 .616.11.924.133.308.484.44.374.132 1.122.132.946 0 1.386-.11.44-.132.594-.44.154-.307.154-.946V3.63h3.212v10.648h-3.168V12.98q-.352 1.518-3.41 1.518m14.712 0q-.814 0-1.364-.066a5 5 0 0 1-1.1-.264 2.8 2.8 0 0 1-1.012-.55q-.375-.353-.616-.968-.264-.638-.264-1.474V5.61h-2.156V3.63h2.156V.55h3.212v3.08h2.926v1.98h-2.926v5.016q0 .77.132 1.166.132.375.506.55.374.154 1.144.154.308 0 1.144-.11v2.002q-1.034.11-1.782.11m6.649-.308L60.011 3.63h3.498l2.398 7.524 2.178-7.524h3.322l-5.83 15.224h-3.256zM0 33.188l7.436-9.746H.22V21h11.44v2.068l-7.436 9.746h7.568v2.464H0zm19.103 2.31q-.99 0-1.628-.066a8.6 8.6 0 0 1-1.364-.264q-.792-.22-1.276-.616-.484-.418-.814-1.166-.33-.725-.33-1.76V28.48q0-1.056.33-1.848t.858-1.232q.462-.375 1.21-.616a6.4 6.4 0 0 1 1.496-.33q.835-.045 1.518-.044 1.012 0 1.606.066.616.044 1.342.264.792.241 1.276.66.506.419.858 1.188.33.792.33 1.892v3.146q0 .99-.33 1.738-.308.747-.814 1.166-.44.374-1.21.616-.748.22-1.474.286-.66.066-1.584.066m0-2.002q.902 0 1.364-.132.462-.154.638-.462.198-.309.198-.902v-4.026q0-.88-.462-1.232t-1.738-.352-1.738.352-.462 1.232V32q0 .594.176.902.198.308.66.462.462.132 1.364.132m7.915-8.866h3.168v1.298q.374-1.518 3.41-1.518 2.046 0 2.86.748.837.726.836 2.31v7.81H34.08v-7.392q0-.616-.132-.924-.11-.308-.484-.44-.351-.132-1.1-.132-.945 0-1.386.132-.44.11-.594.418-.154.307-.154.946v7.392h-3.212zm18.43 10.868q-5.654 0-5.654-3.454v-3.828q0-2.003 1.276-2.904 1.299-.903 3.982-.902 2.53 0 3.696.88 1.188.858 1.188 2.926v2.596h-6.908v.968q0 .924.66 1.32t2.376.396q1.584 0 3.564-.462v2.046a20 20 0 0 1-4.18.418m1.43-6.512v-1.54q0-.528-.44-.792-.417-.264-1.43-.264-1.166 0-1.562.264a.91.91 0 0 0-.418.792v1.54z"/></svg>
